static/images/animations/credit-card.svg

<svg width="16" height="16" viewBox="0 0 16 16" fill="none" xmlns="http://www.w3.org/2000/svg">
<path d="M3.2001 3.2002C2.31644 3.2002 1.6001 3.91654 1.6001 4.8002V5.6002H14.4001V4.8002C14.4001 3.91654 13.6838 3.2002 12.8001 3.2002H3.2001Z" fill="#19191C"/>
<path fill-rule="evenodd" clip-rule="evenodd" d="M14.4001 7.2002H1.6001V11.2002C1.6001 12.0839 2.31644 12.8002 3.2001 12.8002H12.8001C13.6838 12.8002 14.4001 12.0839 14.4001 11.2002V7.2002ZM3.2001 10.4002C3.2001 9.95837 3.55827 9.6002 4.0001 9.6002H4.8001C5.24193 9.6002 5.6001 9.95837 5.6001 10.4002C5.6001 10.842 5.24193 11.2002 4.8001 11.2002H4.0001C3.55827 11.2002 3.2001 10.842 3.2001 10.4002ZM7.2001 9.6002C6.75827 9.6002 6.4001 9.95837 6.4001 10.4002C6.4001 10.842 6.75827 11.2002 7.2001 11.2002H8.0001C8.44192 11.2002 8.8001 10.842 8.8001 10.4002C8.8001 9.95837 8.44192 9.6002 8.0001 9.6002H7.2001Z" fill="#19191C"/>
</svg>

<svg xmlns="http://www.w3.org/2000/svg" width="16" height="16" fill="none"><path fill="#19191C" d="M3.2 3.2a1.6 1.6 0 0 0-1.6 1.6v.8h12.8v-.8a1.6 1.6 0 0 0-1.6-1.6H3.2Z"/><path fill="#19191C" fill-rule="evenodd" d="M14.4 7.2H1.6v4a1.6 1.6 0 0 0 1.6 1.6h9.6a1.6 1.6 0 0 0 1.6-1.6v-4ZM3.2 10.4a.8.8 0 0 1 .8-.8h.8a.8.8 0 1 1 0 1.6H4a.8.8 0 0 1-.8-.8Zm4-.8a.8.8 0 1 0 0 1.6H8a.8.8 0 0 0 0-1.6h-.8Z" clip-rule="evenodd"/></svg>
